epam-assets/icon-sources/18/social-share.svg

<svg width="18" height="18" viewBox="0 0 18 18" fill="none" xmlns="http://www.w3.org/2000/svg">
<g id="18/social-share">
<path id="icon" d="M13.5 16.5C12.875 16.5 12.3438 16.2812 11.9062 15.8438C11.4688 15.4062 11.25 14.875 11.25 14.25C11.25 14.1625 11.2562 14.0717 11.2687 13.9777C11.2812 13.8842 11.3 13.8 11.325 13.725L6.0375 10.65C5.825 10.8375 5.5875 10.9843 5.325 11.0903C5.0625 11.1967 4.7875 11.25 4.5 11.25C3.875 11.25 3.34375 11.0312 2.90625 10.5938C2.46875 10.1562 2.25 9.625 2.25 9C2.25 8.375 2.46875 7.84375 2.90625 7.40625C3.34375 6.96875 3.875 6.75 4.5 6.75C4.7875 6.75 5.0625 6.803 5.325 6.909C5.5875 7.0155 5.825 7.1625 6.0375 7.35L11.325 4.275C11.3 4.2 11.2812 4.11575 11.2687 4.02225C11.2562 3.92825 11.25 3.8375 11.25 3.75C11.25 3.125 11.4688 2.59375 11.9062 2.15625C12.3438 1.71875 12.875 1.5 13.5 1.5C14.125 1.5 14.6562 1.71875 15.0938 2.15625C15.5312 2.59375 15.75 3.125 15.75 3.75C15.75 4.375 15.5312 4.90625 15.0938 5.34375C14.6562 5.78125 14.125 6 13.5 6C13.2125 6 12.9375 5.94675 12.675 5.84025C12.4125 5.73425 12.175 5.5875 11.9625 5.4L6.675 8.475C6.7 8.55 6.71875 8.63425 6.73125 8.72775C6.74375 8.82175 6.75 8.9125 6.75 9C6.75 9.0875 6.74375 9.178 6.73125 9.2715C6.71875 9.3655 6.7 9.45 6.675 9.525L11.9625 12.6C12.175 12.4125 12.4125 12.2655 12.675 12.159C12.9375 12.053 13.2125 12 13.5 12C14.125 12 14.6562 12.2188 15.0938 12.6562C15.5312 13.0938 15.75 13.625 15.75 14.25C15.75 14.875 15.5312 15.4062 15.0938 15.8438C14.6562 16.2812 14.125 16.5 13.5 16.5Z" fill="#6C6F80"/>
</g>
</svg>

<svg xmlns="http://www.w3.org/2000/svg" width="18" height="18" fill="none" viewBox="0 0 18 18">
  <path fill="#6C6F80" d="M13.5 16.5a2.17 2.17 0 0 1-1.594-.656 2.17 2.17 0 0 1-.656-1.594c0-.088.006-.178.019-.272.012-.094.031-.178.056-.253L6.038 10.65c-.213.188-.45.334-.713.44-.263.107-.538.16-.825.16a2.17 2.17 0 0 1-1.594-.656A2.17 2.17 0 0 1 2.25 9c0-.625.219-1.156.656-1.594A2.17 2.17 0 0 1 4.5 6.75c.287 0 .563.053.825.159.263.107.5.253.712.441l5.288-3.075a1.378 1.378 0 0 1-.056-.253 2.066 2.066 0 0 1-.019-.272c0-.625.219-1.156.656-1.594A2.17 2.17 0 0 1 13.5 1.5a2.17 2.17 0 0 1 1.594.656c.437.438.656.969.656 1.594a2.17 2.17 0 0 1-.656 1.594A2.17 2.17 0 0 1 13.5 6c-.287 0-.563-.053-.825-.16a2.463 2.463 0 0 1-.713-.44L6.676 8.475c.025.075.044.16.056.253a2.066 2.066 0 0 1 0 .543 1.377 1.377 0 0 1-.056.254l5.288 3.075c.212-.188.45-.335.712-.441.262-.106.537-.159.825-.159a2.17 2.17 0 0 1 1.594.656c.437.438.656.969.656 1.594a2.17 2.17 0 0 1-.656 1.594 2.17 2.17 0 0 1-1.594.656Z"/>
</svg>
